source/img/sprite/social-vk.svg

<svg width="16" height="16" viewBox="0 0 16 16" fill="none" xmlns="http://www.w3.org/2000/svg">
<path d="M15.8574 11.4207C15.8144 11.3518 15.5484 10.7992 14.2683 9.66345C12.9282 8.47413 13.1082 8.66725 14.7223 6.6108C15.7054 5.35839 16.0984 4.59355 15.9754 4.26659C15.8584 3.95492 15.1353 4.03714 15.1353 4.03714L12.7312 4.05052C12.7312 4.05052 12.5531 4.02758 12.4201 4.1031C12.2911 4.17768 12.2081 4.34976 12.2081 4.34976C12.2081 4.34976 11.8271 5.31919 11.3191 6.1433C10.248 7.88234 9.81894 7.97412 9.64393 7.86609C9.2369 7.61465 9.33891 6.85459 9.33891 6.31539C9.33891 4.62988 9.60593 3.92719 8.81787 3.74554C8.55585 3.68531 8.36384 3.64516 7.69479 3.63847C6.83672 3.62986 6.10967 3.64134 5.69864 3.8335C5.42462 3.96161 5.21361 4.24747 5.34262 4.26372C5.50163 4.2838 5.86165 4.35646 6.05267 4.60503C6.29969 4.9253 6.29069 5.64616 6.29069 5.64616C6.29069 5.64616 6.4327 7.62994 5.95966 7.8766C5.63464 8.04582 5.1896 7.70069 4.23453 6.12227C3.7455 5.31441 3.37547 4.42051 3.37547 4.42051C3.37547 4.42051 3.30447 4.25416 3.17746 4.16525C3.02345 4.05721 2.80743 4.0228 2.80743 4.0228L0.521262 4.03618C0.521262 4.03618 0.178236 4.04574 0.0522271 4.18819C-0.0597811 4.31535 0.0432264 4.5773 0.0432264 4.5773C0.0432264 4.5773 1.83336 8.58025 3.85951 10.5985C5.71864 12.4484 7.8288 12.327 7.8288 12.327H8.78487C8.78487 12.327 9.07389 12.2964 9.2209 12.1444C9.35691 12.0048 9.35191 11.7428 9.35191 11.7428C9.35191 11.7428 9.33291 10.5162 9.92895 10.3355C10.516 10.1577 11.2701 11.521 12.0691 12.0459C12.6732 12.4427 13.1322 12.3557 13.1322 12.3557L15.2693 12.327C15.2693 12.327 16.3874 12.261 15.8574 11.4207Z" fill="#316DC2"/>
</svg>

<svg width="16" height="16" viewBox="0 0 16 16" fill="none" xmlns="http://www.w3.org/2000/svg"><path d="M15.857 11.42c-.043-.068-.309-.62-1.589-1.757-1.34-1.189-1.16-.996.454-3.052.983-1.253 1.376-2.017 1.253-2.344-.117-.312-.84-.23-.84-.23l-2.404.014s-.178-.023-.31.052a.652.652 0 0 0-.213.247s-.38.97-.889 1.793c-1.071 1.74-1.5 1.831-1.675 1.723-.407-.251-.305-1.011-.305-1.55 0-1.686.267-2.389-.521-2.57-.262-.06-.454-.1-1.123-.108-.858-.008-1.585.003-1.996.196-.274.128-.485.413-.356.43.159.02.519.092.71.341.247.32.238 1.041.238 1.041s.142 1.984-.331 2.23c-.325.17-.77-.175-1.725-1.754-.49-.808-.86-1.701-.86-1.701s-.07-.167-.198-.256c-.154-.108-.37-.142-.37-.142l-2.286.013s-.343.01-.469.152c-.112.127-.009.39-.009.39s1.79 4.002 3.817 6.02c1.859 1.85 3.969 1.729 3.969 1.729h.956s.289-.03.436-.183c.136-.14.13-.401.13-.401s-.018-1.227.578-1.408c.587-.177 1.341 1.186 2.14 1.71.604.398 1.063.31 1.063.31l2.137-.028s1.118-.066.588-.906Z" fill="#316DC2"/></svg>
